images/Group.svg

<?xml version="1.0" encoding="UTF-8" standalone="no"?>
<svg
   xmlns:dc="http://purl.org/dc/elements/1.1/"
   xmlns:cc="http://creativecommons.org/ns#"
   xmlns:rdf="http://www.w3.org/1999/02/22-rdf-syntax-ns#"
   xmlns:svg="http://www.w3.org/2000/svg"
   xmlns="http://www.w3.org/2000/svg"
   xmlns:sodipodi="http://sodipodi.sourceforge.net/DTD/sodipodi-0.dtd"
   xmlns:inkscape="http://www.inkscape.org/namespaces/inkscape"
   width="467.6059"
   height="408.37091"
   viewBox="0 0 467.6059 408.37091"
   version="1.1"
   id="svg72"
   sodipodi:docname="Group.svg"
   inkscape:version="0.92.5 (2060ec1f9f, 2020-04-08)"
   style="fill:none">
  <metadata
     id="metadata76">
    <rdf:RDF>
      <cc:Work
         rdf:about="">
        <dc:format>image/svg+xml</dc:format>
        <dc:type
           rdf:resource="http://purl.org/dc/dcmitype/StillImage" />
        <dc:title></dc:title>
      </cc:Work>
    </rdf:RDF>
  </metadata>
  <sodipodi:namedview
     pagecolor="#ffffff"
     bordercolor="#666666"
     borderopacity="1"
     objecttolerance="10"
     gridtolerance="10"
     guidetolerance="10"
     inkscape:pageopacity="0"
     inkscape:pageshadow="2"
     inkscape:window-width="1366"
     inkscape:window-height="714"
     id="namedview74"
     showgrid="false"
     inkscape:zoom="0.47440273"
     inkscape:cx="-175.76001"
     inkscape:cy="209.39047"
     inkscape:window-x="0"
     inkscape:window-y="0"
     inkscape:window-maximized="1"
     inkscape:current-layer="svg72"
     fit-margin-top="0"
     fit-margin-left="0"
     fit-margin-right="0"
     fit-margin-bottom="0" />
  <mask
     id="mask0_34_1557"
     maskUnits="userSpaceOnUse"
     x="247"
     y="17"
     width="364"
     height="285">
    <path
       d="m 595.546,226.834 c 0,0 24.737,30.725 10.084,57.826 -14.654,27.101 -51.524,14.024 -55.62,10.557 -4.255,-3.309 -210.505,-172.532 -210.505,-172.532 0,0 -14.496,-14.338 -41.282,-17.332 -30.882,-3.466 -50.105,12.132 -50.105,12.132 L 362.351,24.6804 c 0,0 35.137,-19.38031 78.31,7.8782 43.172,27.2585 169.538,128.2564 169.538,128.2564 l -29.149,41.597 c 0,0 6.46,11.187 14.496,24.422 z"
       stroke-miterlimit="10"
       id="path26"
       inkscape:connector-curvature="0"
       style="fill:#ffffff;stroke:#262626;stroke-width:0.78781801;stroke-miterlimit:10" />
  </mask>
  <defs
     id="defs70">
    <clipPath
       id="clip0_34_1557">
      <rect
         width="376.19901"
         height="317.93301"
         transform="matrix(1,0,0,-1,220.07,286.933)"
         id="rect67"
         x="0"
         y="0"
         style="fill:#ffffff" />
    </clipPath>
  </defs>
  <rect
     style="opacity:0.81499999;fill:none;fill-opacity:1;stroke:#26aa5b;stroke-width:23.81044388;stroke-linecap:round;stroke-linejoin:round;stroke-miterlimit:4;stroke-dasharray:none;stroke-opacity:1"
     id="rect1050"
     width="340.35062"
     height="292.43588"
     x="60.561794"
     y="59.021469" />
  <path
     inkscape:connector-curvature="0"
     style="opacity:0.81499999;fill:none;fill-opacity:1;stroke:#26aa5b;stroke-width:23.81044388;stroke-linecap:round;stroke-linejoin:round;stroke-miterlimit:4;stroke-dasharray:none;stroke-opacity:1"
     d="m 164.34337,276.26147 -53.3739,-59.625 51.3115,-63.67541"
     id="path1052" />
  <path
     inkscape:connector-curvature="0"
     id="path1055"
     d="M 205.51538,300.23563 253.73877,124.88274"
     style="opacity:0.81499999;fill:none;fill-opacity:1;stroke:#26aa5b;stroke-width:23.81044388;stroke-linecap:round;stroke-linejoin:round;stroke-miterlimit:4;stroke-dasharray:none;stroke-opacity:1" />
  <path
     inkscape:connector-curvature="0"
     id="path1071"
     d="m 281.01654,282.64753 60.05551,-52.46165 -43.36347,-69.65439"
     style="opacity:0.81499999;fill:none;fill-opacity:1;stroke:#26aa5b;stroke-width:23.81044388;stroke-linecap:round;stroke-linejoin:round;stroke-miterlimit:4;stroke-dasharray:none;stroke-opacity:1" />
  <ellipse
     style="opacity:0.81499999;fill:none;fill-opacity:1;stroke:#26aa5b;stroke-width:8.13602924;stroke-linecap:round;stroke-linejoin:round;stroke-miterlimit:4;stroke-dasharray:none;stroke-opacity:1"
     id="path1080"
     cx="306.67038"
     cy="96.555038"
     rx="13.822756"
     ry="14.227394" />
  <ellipse
     cy="95.478058"
     cx="355.84958"
     id="circle1082"
     style="opacity:0.81499999;fill:none;fill-opacity:1;stroke:#26aa5b;stroke-width:8.13602924;stroke-linecap:round;stroke-linejoin:round;stroke-miterlimit:4;stroke-dasharray:none;stroke-opacity:1"
     rx="13.822756"
     ry="14.227394" />
</svg>

<svg width="586" height="354" viewBox="0 0 586 354" fill="none" xmlns="http://www.w3.org/2000/svg">
<path d="M88.8662 329.308H160.085V334.823H88.8662V329.308Z" fill="white" stroke="#262626" stroke-width="0.787818" stroke-miterlimit="10"/>
<path d="M132.038 301.892C132.038 301.892 122.9 309.928 111.083 306.304C99.2652 302.68 62.7105 290.862 62.7105 290.862L74.0551 280.778C74.0551 280.778 112.658 280.778 131.093 278.888L140.547 287.711L132.038 301.892Z" fill="white" stroke="#262626" stroke-width="0.787818" stroke-miterlimit="10"/>
<path d="M85.0845 194.906C85.0845 194.906 75.3156 209.244 90.2841 228.94C105.253 248.635 127.312 275.421 127.312 275.421C127.312 275.421 138.341 292.753 132.038 301.734L175.684 260.295L85.0845 194.906Z" fill="white" stroke="#262626" stroke-width="0.787818" stroke-miterlimit="10"/>
<path d="M244.854 184.822L335.296 287.396C335.296 287.396 363.657 320.484 352.628 339.392C341.598 358.3 316.703 353.888 300.001 346.64C283.3 339.392 85.0847 195.064 85.0847 195.064L248.163 55.4624L325.842 113.918L244.854 184.822Z" fill="white" stroke="#262626" stroke-width="0.787818" stroke-miterlimit="10"/>
<path d="M198.688 147.322L163.709 126.524L112.659 171.429L145.905 197.27L198.688 147.322Z" fill="#FF6B00" stroke="#262626" stroke-width="0.787818" stroke-miterlimit="10"/>
<path d="M220.117 147.322L133.142 88.0781L80.3583 134.559L167.333 197.27L220.117 147.322Z" fill="white" stroke="#262626" stroke-width="0.787818" stroke-miterlimit="10"/>
<path d="M154.727 119.748L135.505 135.977L187.185 178.204L221.062 146.219L154.727 119.748Z" fill="#262626"/>
<path d="M318.437 328.363L171.43 210.032L204.518 177.102L318.437 328.363Z" fill="#262626"/>
<path d="M371.062 278.257L189.234 66.3344L136.293 112.816L318.436 328.363L371.062 278.257Z" fill="white" stroke="#262626" stroke-width="0.787818" stroke-miterlimit="10"/>
<path d="M248.163 117.7L362.397 24.8951C364.76 49.3174 375.16 74.0549 375.16 74.0549L486.399 178.992L448.111 212.238L450.632 214.287C468.91 232.564 450.632 254.623 450.632 254.623L348.059 344.749C360.979 326.944 345.38 301.734 345.38 301.734L244.539 184.665C214.917 148.898 248.163 117.7 248.163 117.7Z" fill="white" stroke="#262626" stroke-width="0.787818" stroke-miterlimit="10"/>
<path d="M435.034 268.488C435.034 268.488 444.487 249.423 429.204 231.303C414.078 213.183 276.21 103.992 276.21 103.992L294.802 85.557L450.948 214.444C450.948 214.444 466.231 229.57 454.887 248.478L450.948 254.78L435.034 268.488Z" fill="#FF6B00" stroke="#262626" stroke-width="0.787818" stroke-miterlimit="10"/>
<path d="M595.59 227.207C595.59 227.207 620.328 257.932 605.675 285.033C591.021 312.134 554.151 299.056 550.055 295.589C545.8 292.281 339.55 123.057 339.55 123.057C339.55 123.057 325.054 108.719 298.268 105.725C267.385 102.259 248.163 117.858 248.163 117.858L362.396 25.0527C362.396 25.0527 397.533 5.67234 440.705 32.9308C483.878 60.1893 610.244 161.188 610.244 161.188L581.095 202.784C581.095 202.784 587.555 213.971 595.59 227.207Z" fill="white" stroke="#262626" stroke-width="0.787818" stroke-miterlimit="10"/>
<mask id="mask0_34_1557" style="mask-type:alpha" maskUnits="userSpaceOnUse" x="247" y="17" width="364" height="285">
<path d="M595.546 226.834C595.546 226.834 620.283 257.559 605.63 284.66C590.976 311.761 554.106 298.684 550.01 295.217C545.755 291.908 339.505 122.685 339.505 122.685C339.505 122.685 325.009 108.347 298.223 105.353C267.341 101.887 248.118 117.485 248.118 117.485L362.351 24.6804C362.351 24.6804 397.488 5.30009 440.661 32.5586C483.833 59.8171 610.199 160.815 610.199 160.815L581.05 202.412C581.05 202.412 587.51 213.599 595.546 226.834Z" fill="white" stroke="#262626" stroke-width="0.787818" stroke-miterlimit="10"/>
</mask>
<g mask="url(#mask0_34_1557)">
<g clip-path="url(#clip0_34_1557)">
<path d="M453.707 96.0537L412.932 99.6327L405.789 141.686L363.526 146.159L370.669 103.51L326.918 107.387L334.061 63.2464L377.812 60.2639L420.372 57.2815L427.515 14.632L468.29 12.5442L475.731 -29.807L515.017 -31L507.577 10.4565L500.434 51.6147L461.147 54.299L453.707 96.0537Z" fill="#666666"/>
<path d="M446.564 137.212L439.719 178.37L398.944 183.44L405.79 141.686L446.564 137.212Z" fill="#262626"/>
<path d="M493.292 92.4748L486.149 133.037L446.564 137.212L453.707 96.0538L493.292 92.4748Z" fill="#262626"/>
<path d="M523.946 129.159L516.803 168.826L479.005 173.598L486.148 133.036L523.946 129.159Z" fill="#262626"/>
<path d="M531.09 89.194L493.291 92.4748L500.434 51.6148L538.53 48.9305L575.138 46.2463L567.995 85.9133L560.554 125.282L523.946 129.159L531.09 89.194Z" fill="#FF6B00"/>
<path d="M319.775 150.931L363.526 146.159L356.681 188.809L398.943 183.44L391.8 224.897L349.538 230.862L305.787 237.125L312.93 194.177L267.393 199.844L220.07 205.809L226.916 160.774L274.238 155.703L281.381 111.264L326.918 107.387L319.775 150.931Z" fill="#FF6B00"/>
<path d="M233.761 115.44L240.904 69.8079L288.226 66.5272L281.381 111.264L233.761 115.44Z" fill="#262626"/>
<path d="M253.702 286.933L260.548 243.687L305.787 237.125L298.941 279.775L253.702 286.933Z" fill="#262626"/>
<path d="M439.718 178.37L479.005 173.598L471.862 213.564L464.719 253.231L425.432 259.494L384.955 266.055L391.8 224.897L432.575 219.23L439.718 178.37Z" fill="#262626"/>
<path d="M546.566 202.827L509.66 208.195L516.803 168.826L553.411 164.054L546.566 202.827Z" fill="#262626"/>
<path d="M596.269 121.405L589.126 159.879L553.411 164.054L560.554 125.282L596.269 121.405Z" fill="#262626"/>
<path d="M288.227 66.5272L295.37 21.4917L341.204 19.1057L334.061 63.2465L288.227 66.5272Z" fill="#262626"/>
</g>
</g>
<path d="M581.883 221.219L555.097 248.478L600.003 292.123C600.003 291.965 624.425 262.186 581.883 221.219Z" fill="#262626"/>
<path d="M568.017 210.347L637.345 128.099C637.345 128.099 663.973 156.618 669.961 173.95C677.996 197.27 666.809 211.293 666.809 211.293L600.002 291.965C600.002 291.965 611.505 283.299 598.742 249.738C586.61 217.753 568.017 210.347 568.017 210.347Z" fill="white" stroke="#262626" stroke-width="0.787818" stroke-miterlimit="10"/>
<path d="M347.743 100.053C347.743 100.053 309.14 78.4667 279.991 92.1747L341.283 42.0695L388.395 51.6809L347.743 100.053Z" fill="#262626"/>
<path d="M449.528 72.952L355.148 0.472717L292.753 55.4624L387.291 132.038L449.528 72.952Z" fill="white" stroke="#262626" stroke-width="0.787818" stroke-miterlimit="10"/>
<path d="M88.8671 280.778L107.145 334.823H20.327L0.473961 280.778H88.8671Z" fill="white" stroke="#262626" stroke-width="0.787818" stroke-miterlimit="10"/>
<defs>
<clipPath id="clip0_34_1557">
<rect width="376.199" height="317.933" fill="white" transform="matrix(1 0 0 -1 220.07 286.933)"/>
</clipPath>
</defs>
</svg>
